!!!!SEGMENT: pl-kk--kk-i-40--003-004_guami-gioseffo--missa-in-me-transierunt-agnus-dei.krn
!!!cenid: 16xx:1288
!!!COM: Guami, Gioseffo
!!!COM-rismid: pe20000528
!!!CDT: 1542/01/27-1611
!!!CNT: Italian
!!!OPR: Missa In me transierunt
!!!OTL: Agnus Dei
!!!OMV: 004
!!!PDT:
!!!AGN: Sacred; Mass
!!!SMS-siglum: PL-Kk
!!!SMS-shelfmark: Kk.I.40
!!!SMS-shelfwork: 003-004 M
!!!SMS-variant:
!!!SMS-altvar:
!!!NIFC-rismid: 1001154489
!!!URL-scan: http://repozytorium.nifc.pl/skany/pl-kk-nut--i-40
!!!ONB-nifc: UWAGA: części Mszy: 1. Kyrie, 2. Et in terra, 3. Sanctus, 4. Agnus Dei. Skan 0006-0007
!!!AIN: 1 empty
!!!key:
**kern	**text
*Iempty	*
*I"Baſso Ripieno.	*
*I'B rip	*
*clefF4	*
*k[]	*
*d:	*
*M2/1	*
*met(c|)	*
=1-	=1-
!LO:TX:t=P:global:problem=oddech/cezura na różnej wysokości	!
!LO:TX:i:a:t=6. Vocum.	!
!LO:N:vis=00	!
00r	.
=2-	=2-
.	.
=3-	=3-
1.A	A-
!LO:TX:t=P:problem=kreska pseudotaktowa	!
2AA/	-gnus
=4-	=4-
2.C/	De-
4BB/	.
1AA	.
=5-	=5-
!LO:TX:t=P:problem=kreska pseudotaktowa	!
0AA	-i
=6-	=6-
!LO:N:vis=00	!
00r	.
=7-	=7-
.	.
=8-	=8-
1.E	A-
*2\right	*
!LO:TX:t=P:problem=kreska pseudotaktowa	!
2E\	-gnus
=9-	=9-
2.G\	De-
4F\	.
0E	.
=10-	=10-
.	.
2D,\	-i
!LO:TX:t=P:problem=kreska pseudotaktowa	!
2F\	qui
=11-	=11-
1C	tol-
2D\	-lis
2D\	pec-
=12-	=12-
1GG	-ca-
2G,\	-ta
!LO:TX:t=P:problem=kreska pseudotaktowa	!
*	*ij
2G\	pec-
=13-	=13-
2F#X\	-ca-
!LO:TX:t=P:problem=kreska pseudotaktowa	!
2G\	-ta
*lig	*Xij
1C	mun-
=14-	=14-
1G	.
*Xlig	*
!LO:TX:t=P:problem=kreska pseudotaktowa	!
1C	-di
=15-	=15-
0r	.
=16-	=16-
2r	.
!LO:TX:t=P:problem=kreska pseudotaktowa	!
2A\	Qui
2.E\	tol-
4Fny\	.
=17-	=17-
1G	.
2GG,/	-lis
!LO:TX:t=P:problem=kreska pseudotaktowa	!
2G\	pec-
!LO:LB:g=original	!
=18-	=18-
4A\	-ca-
4G\	.
4F\	.
4E\	.
2D\	.
2A,\	-ta
=19-	=19-
2A\	.
2AA/	mun-
!LO:TX:t=P:problem=kreska pseudotaktowa	!
1D	-di.
=20-	=20-
!LO:N:vis=00	!
00r	.
=21-	=21-
.	.
=22-	=22-
1.A	mi-
!LO:TX:t=P:problem=kreska pseudotaktowa	!
2AA/	-ſe-
=23-	=23-
2D\	-re-
2C#X/	-re
*lig	*
1D	no-
=24-	=24-
1AA	.
*Xlig	*
!LO:TX:t=P:problem=kreska pseudotaktowa	!
1E,	-bis
=25-	=25-
0r	.
=26-	=26-
!LO:TX:t=P:problem=kreska pseudotaktowa	!
1r	.
2r	.
1A\	mi-
=27-	=27-
.	.
2G#X\	-ſe-
2A\	-re-
!LO:TX:t=P:problem=kreska pseudotaktowa	!
2A\	-re
=28-	=28-
0AA	no-
=29-	=29-
!LO:TX:t=P:problem=kreska pseudotaktowa	!
1E,	-bis
2BB/	mi-
2Cny/	-se-
=30-	=30-
2A\	-re-
2G#X\	-re
1A	no-
=31-	=31-
0E;>	-bis.
=32||	=32||
*M2/1	*
*met(c|)	*
0A	A-
=33-	=33-
!LO:TX:t=P:problem=kreska pseudotaktowa	!
1AA	-gnus
1E	De-
=34-	=34-
1.AA,	-i
!LO:TX:t=P:problem=kreska pseudotaktowa	!
2D\	qui
!LO:LB:g=original	!
=35-	=35-
1D	tol-
!LO:TX:t=P:problem=kreska pseudotaktowa	!
1D	-lis
=36-	=36-
1E	pec-
2C#X/	-ca-
2D\	-ta
=37-	=37-
1A	mun-
!LO:TX:t=P:problem=kreska pseudotaktowa	!
1E	-di
=38-	=38-
1.D	mi-
2D\	-ſe-
=39-	=39-
2Cny/	-re-
2GG/	-re
1D	no-
=40-	=40-
!LO:TX:t=P:problem=kreska pseudotaktowa	!
1GG	-bis
0r	.
=41-	=41-
.	.
1A	mi-
=42-	=42-
2F\	-ſe-
!LO:TX:t=P:problem=kreska pseudotaktowa	!
2F\	-re-
1.A	-re
=43-	=43-
.	.
2AA/	no-
!LO:TX:b:Bi::t=Agnus 3tium ut supra	!
!LO:N:vis=0	!
1E;>	-bis.
==	==
*-	*-
!!!RDF**kern: > = above
!!!RDF**kern: < = below
!!!EED: Antoni Szymański
!!!EST: 2021-07-31
!!!ENC: Katarzyna Serwa
!!!END: 2021-07-04
